icon-themes/breeze_svg/cmd/lc_selectbackground.svg

<svg viewBox="0 0 24 24" xmlns="http://www.w3.org/2000/svg"><path d="m4 3v1 17h16v-4-13-1h-15zm1 1h14v12l-4-4-4 4-1-1-5 5zm3 1c-1.108 0-2 .892-2 2s.892 2 2 2 2-.892 2-2-.892-2-2-2z" fill="#4d4d4d"/></svg>

<svg xmlns="http://www.w3.org/2000/svg" viewBox="0 0 24 24">
  <path
     style="fill:#4d4d4d"
     d="M 4,3 V 4 21 H 20 V 17 4 3 H 5 Z m 1,1 h 14 v 12 l -4,-4 -4,4 -1,-1 -5,5 z M 8,5 C 6.892,5 6,5.892 6,7 6,8.108 6.892,9 8,9 9.108,9 10,8.108 10,7 10,5.892 9.108,5 8,5 Z"
     />
</svg>
